other/svg-icons/camera.svg

<!-- Downloaded from @radix-ui/icons -->
<!-- License https://github.com/radix-ui/icons/blob/master/LICENSE -->
<!-- https://github.com/radix-ui/icons/blob/master/packages/radix-icons/icons/camera.svg -->
<svg width="15" height="15" viewBox="0 0 15 15" fill="none" xmlns="http://www.w3.org/2000/svg">
  <path
    fill-rule="evenodd"
    clip-rule="evenodd"
    d="M2 3C1.44772 3 1 3.44772 1 4V11C1 11.5523 1.44772 12 2 12H13C13.5523 12 14 11.5523 14 11V4C14 3.44772 13.5523 3 13 3H2ZM0 4C0 2.89543 0.895431 2 2 2H13C14.1046 2 15 2.89543 15 4V11C15 12.1046 14.1046 13 13 13H2C0.895431 13 0 12.1046 0 11V4ZM2 4.25C2 4.11193 2.11193 4 2.25 4H4.75C4.88807 4 5 4.11193 5 4.25V5.75454C5 5.89261 4.88807 6.00454 4.75 6.00454H2.25C2.11193 6.00454 2 5.89261 2 5.75454V4.25ZM12.101 7.58421C12.101 9.02073 10.9365 10.1853 9.49998 10.1853C8.06346 10.1853 6.89893 9.02073 6.89893 7.58421C6.89893 6.14769 8.06346 4.98315 9.49998 4.98315C10.9365 4.98315 12.101 6.14769 12.101 7.58421ZM13.101 7.58421C13.101 9.57302 11.4888 11.1853 9.49998 11.1853C7.51117 11.1853 5.89893 9.57302 5.89893 7.58421C5.89893 5.5954 7.51117 3.98315 9.49998 3.98315C11.4888 3.98315 13.101 5.5954 13.101 7.58421Z"
    fill="currentColor"
  />
</svg>

<!-- Downloaded from radix-icons/camera.svg -->
<svg xmlns="http://www.w3.org/2000/svg" width="1em" height="1em" viewBox="0 0 15 15"><path fill="currentColor" d="M13 2a2 2 0 0 1 2 2v7a2 2 0 0 1-2 2H2a2 2 0 0 1-1.99-1.796L0 11V4a2 2 0 0 1 2-2zM2 3a1 1 0 0 0-1 1v7l.005.102A1 1 0 0 0 2 12h11a1 1 0 0 0 1-1V4a1 1 0 0 0-1-1zm7.686.988a3.6 3.6 0 0 1 3.416 3.596l-.005.186A3.6 3.6 0 0 1 9.5 11.185l-.185-.004a3.6 3.6 0 0 1-3.41-3.411l-.006-.186c0-1.988 1.613-3.6 3.601-3.6zm-.186.995a2.601 2.601 0 1 0 0 5.203a2.601 2.601 0 0 0 0-5.203M4.75 4a.25.25 0 0 1 .25.25v1.505a.25.25 0 0 1-.25.25h-2.5a.25.25 0 0 1-.25-.25V4.25A.25.25 0 0 1 2.25 4z"/></svg>
